X: 95
T: Ah si pouvez ramener mon Amante
C: Maria Szymanowska
%%abc-version 2.0
%%abcx-abcm2ps-target-version 5.9.1 (29 Sep 2008)
%%abc-creator hum2abc beta
%%abcx-conversion-date 2021/10/04 07:38:40
%%abc-edited-by Katarzyna Serwa
%%abcx-initial-encoding-date 2021-07-28
%%humdrum-veritas 3877494429
%%humdrum-veritas-data 1783842943
%%linebreak <none>
%%barnumbers 0
L: 1/16
M: 3/4
N: Derived from pl-kozmzk--mzk-m-33--003_szymanowska-maria--ah-si-pouvez-ramener-mon-amante.krn
Q: "Plainlif"
V: 1 clef=treble
V: 2 clef=treble
V: 3 clef=bass
K: Ab
[V:1] F4A4=B4 | 
[V:2] z A,F2 z A,F2 z A,F2 | 
[V:3] F,,2>F,2 F,,2>F,2 F,,3F, | 
[V:1] c4z4A2 A2 | 
[V:2] z A,F2 z A,F2 z A,F2 | 
[V:3] F,,2>F,2 F,,2>F,2 F,,3F, | 
[V:1] G4>_B4 A2 G2 | 
[V:2] z B,G2 z B,G2 z B,G2 | 
[V:3] C,,2>C,2 =E,,2>=E,2 C,,3C, | 
[V:1] F8C4 | 
[V:2] z A,F2 z A,F2 z A,F2 | 
[V:3] F,,2>F,2 F,,2>F,2 F,,3F, | 
[V:1] F4A4=B4 | 
[V:2] z A,F2 z A,F2 z A,F2 | 
[V:3] F,,2>F,2 F,,2>F,2 F,,3F, | 
[V:1] c4z4A4 | 
[V:2] z A,F2 z A,F2 z A,F2 | 
[V:3] F,,2>F,2 F,,2>F,2 F,,3F, | 
[V:1] G4>E4 F2 G2 | 
[V:2] z B,G2 z B,G2 z B,G2 | 
[V:3] _E,,2>E,2 E,,2>E,2 E,,3E, | 
[V:1] A4z4A4 | 
[V:2] z CA2 z CA2 z CA2 | 
[V:3] A,,2>A,2 A,,2>A,2 A,,3A, | 
[V:1] G8A2 G2 | 
[V:2] z B,G2 z B,G2 z G,=E2 | 
[V:3] C,,2>C,2 C,,2>C,2 C,,3C, | 
[V:1] F4z4F4 | 
[V:2] z A,F2 z A,F2 z A,F2 | 
[V:3] F,,2>F,2 F,,2>F,2 F,,3F, | 
[V:1] =E4>C4 D2 E2 | 
[V:2] z G,=E2 z G,E2 z G,E2 | 
[V:3] C,,2>C,2 =E,,2>=E,2 C,,3C, | 
[V:1] G2 F2z4z4 | 
[V:2] z A,F2 z A,F2 z A,F2 | 
[V:3] F,,2>F,2 F,,2>F,2 F,,3F, | 
[V:1] F4F4A4 | 
[V:2] z A,F2 z A,F2 z A,F2 | 
[V:3] F,,2>F,2 F,,2>F,2 F,,3F, | 
[V:1] c8A4 | 
[V:2] z A,F2 z A,F2 z A,F2 | 
[V:3] F,,2>F,2 F,,2>F,2 F,,3F, | 
[V:1] G4G2 !accent!d2 c2 =E2 | 
[V:2] z B,G2 z B,G2 z G,=E2 | 
[V:3] B,,,2>B,,2 B,,,2>B,,2 C,,3C, | 
[V:1] F4z4z4 | 
[V:2] z A,F2 z CA2 z Fc2 | 
[V:3] F,,2>F,2 F,,2>F,2 F,,3F, | 
[V:1] z12 | 
[V:2] z Dd2 z Cc2 z G,=E2 | 
[V:3] B,,,2>B,,2 C,,2>C,2 C,,3C, | 
[V:1] z12 | 
[V:2] z A,F2 z CA2 z Fc2 | 
[V:3] F,,2>F,2 F,,2>F,2 F,,3F, | 
[V:1] z12 | 
[V:2] z Dd2 z Cc2 z G,=E2 | 
[V:3] B,,,2>B,,2 C,,2>C,2 C,,3C, | 
[V:1] z12 |[1 
[V:2] z A,F2 z A,F2 z CA2 | 
[V:3] F,,2>F,2 F,,2>F,2 F,,3F, | 
[V:1] z12 ||[2 
[V:2] z A,F2 z A,F2 z A,F2 ||  
[V:3] F,,2>F,2 F,,2>F,2 F,,3F, ||  
[V:1] !fermata!z12 |]  
[V:2] [F4A,4]z4z4 |]  
[V:3] !fermata!F,,4z4z4 |]  


